X: 1614
T: Joe Yates' Jig
B: australian traditional tunes wiki
M:6/8
L:1/16
R: Jig
Q: 3/8=100
K:Dmaj
V:1 
A|"D"F4D2F4D2|F3FF2 F3ED2|A3AF2 d3FF2|"A"E3FE2 E4A2|"D"F3DD2 F3DD2|F3FF2 F3ED2|A4F2d4F2|"A"A3AA2 A4g2|
|:"D"f4d2 "A"e3AA2|"Bm"d3cB2 A3FD2|"D"f2d2f2 "A"e2c2A2|"Bm"B3BB2 B4g2|"D"f2d2d2 "A"e2A2A2|"Bm"d3cB2 A3FD2|D3FA2 d2A2F2|1"D"D3ED2 D4g2:|2"D"D3ED2 D4z2||
% abcbook-tune_id 6342d53a1cd3835c48949a81


% abcbook-boost 0
% abcbook-tablature 
% abcbook-transpose 
% abcbook-lastupdated 1665324374084
% abcbook-soundfonts 
% abcbook-repeats 1
% NFF Book 2015

